Adwaita++/actions/22/document-open.svg

<svg fill="none" height="22" viewBox="0 0 22 22" width="22" xmlns="http://www.w3.org/2000/svg">
  <path clip-rule="evenodd" d="m7 4.01009c-.00822-.4666.3541-.9125.8125-1 .0312-.001.0626-.001.0938 0 .0312-.001.0625-.001.0937 0h5.4375c.2641-.00612.529.09755.7187.28125l3.5626 3.56244c.1836.1898.2872.45471.2812.71881v4.43751h-2v-4.00001h-3v-3h-4v7.00001h-2zm-3.96875 3.99022c0-1 1-1 1-1h1.9687v5.00979h-.5c-.0311-.003-.0625-.003-.0937 0-.21912.0416-.39625.2459-.40625.4687l-.5 4.5c-.01636.2618.20695.5149.46875.5313.2618.0163.51485-.207.53125-.4688l.46875-4.0312h13.03125v4c0 .8333-.574 1.5057-1.0625 1.75-.4885.244-.9375.25-.9375.25h-12s-.44899-.0057-.9375-.25-1.06248-.9167-1.0625-1.75z" fill="#444" fill-rule="evenodd"/>
</svg>

<svg xmlns="http://www.w3.org/2000/svg" fill="none" width="22" height="22" viewBox="0 0 22 22">
 <path fill="#444" fill-rule="evenodd" d="M7 4.01009C6.99178 3.54349 7.3541 3.09759 7.8125 3.01009C7.8437 3.00909 7.8751 3.00909 7.9063 3.01009C7.9375 3.00909 7.9688 3.00909 8 3.01009H13.4375C13.7016 3.00397 13.9665 3.10764 14.1562 3.29134L17.7188 6.85378C17.9024 7.04358 18.006 7.30849 18 7.57259V12.0101H16V8.01009H13V5.01009H9V12.0101H7V4.01009ZM3.03125 8.00031C3.03125 7.00031 4.03125 7.00031 4.03125 7.00031H5.99995V12.0101H5.49995C5.46885 12.0071 5.43745 12.0071 5.40625 12.0101C5.18713 12.0517 5.01 12.256 5 12.4788L4.5 16.9788C4.48364 17.2406 4.70695 17.4937 4.96875 17.5101C5.23055 17.5264 5.4836 17.3031 5.5 17.0413L5.96875 13.0101H19V17.0101C19 17.8434 18.426 18.5158 17.9375 18.7601C17.449 19.0041 17 19.0101 17 19.0101H5C5 19.0101 4.55101 19.0044 4.0625 18.7601C3.57399 18.5158 3.00002 17.8434 3 17.0101L3.03125 8.00031Z" clip-rule="evenodd"/>
</svg>
